X: 15
M: 6/8
L: 1/8
K: Dm
cAF GEC |[1 DFE D2 :|[2 DFE D3 ||
|:\
f2f e2e | (d>e)d (cA2) |\
(c>B)A G2F | (FE2) F3 :|\
|: .c.c.d .c.A.F |
c(d/e/)f gec |\
(A>G)F E2D | ddc dAA |\
(c>B)A GDF |[1 (E>F)E D3 :|[2 (E>F)E D2 |]

